svg/700/rounded/move_selection_left-fill.svg

<svg xmlns="http://www.w3.org/2000/svg" width="48" height="48" viewBox="0 -960 960 960"><path d="M149-220q-39.8 0-66.9-27.625Q55-275.25 55-314v-333q0-40.213 27.1-67.606Q109.2-742 149-742h333q40.213 0 67.606 27.394Q577-687.213 577-647v333q0 38.75-27.394 66.375Q522.213-220 482-220H149Zm544.825 0Q674-220 660.5-233.675q-13.5-13.676-13.5-33.5Q647-287 660.675-300.5q13.676-13.5 33.5-13.5Q714-314 727.5-300.325q13.5 13.676 13.5 33.5Q741-247 727.325-233.5q-13.676 13.5-33.5 13.5Zm163.912 0Q838-220 824.5-233.675q-13.5-13.676-13.5-33.5Q811-287 824.675-300.5q13.676-13.5 33.413-13.5 19.737 0 33.824 13.675Q906-286.649 906-266.825 906-247 891.737-233.5q-14.263 13.5-34 13.5Zm0-214Q838-434 824.5-447.675q-13.5-13.676-13.5-33.5Q811-501 824.675-514.5q13.676-13.5 33.413-13.5 19.737 0 33.824 13.675Q906-500.649 906-480.825 906-461 891.737-447.5q-14.263 13.5-34 13.5Zm0-213Q838-647 824.5-660.675q-13.5-13.676-13.5-34Q811-715 824.675-728.5q13.676-13.5 33.413-13.5 19.737 0 33.824 13.675 14.088 13.676 14.088 34Q906-674 891.737-660.5q-14.263 13.5-34 13.5Zm-163.912 0Q674-647 660.5-660.675q-13.5-13.676-13.5-34Q647-715 660.675-728.5q13.676-13.5 33.5-13.5Q714-742 727.5-728.325q13.5 13.676 13.5 34Q741-674 727.325-660.5q-13.676 13.5-33.5 13.5Z"/></svg>

<svg xmlns="http://www.w3.org/2000/svg" width="48" height="48" viewBox="0 -960 960 960"><path d="M149-220q-39.8 0-66.9-27.63Q55-275.25 55-314v-333q0-40.21 27.1-67.61Q109.2-742 149-742h333q40.21 0 67.61 27.39Q577-687.21 577-647v333q0 38.75-27.39 66.37Q522.21-220 482-220H149Zm544.82 0q-19.82 0-33.32-13.68-13.5-13.67-13.5-33.5 0-19.82 13.68-33.32 13.67-13.5 33.5-13.5 19.82 0 33.32 13.68 13.5 13.67 13.5 33.5 0 19.82-13.68 33.32-13.67 13.5-33.5 13.5Zm163.92 0q-19.74 0-33.24-13.68-13.5-13.67-13.5-33.5 0-19.82 13.68-33.32 13.67-13.5 33.41-13.5 19.73 0 33.82 13.68Q906-286.65 906-266.82q0 19.82-14.26 33.32-14.27 13.5-34 13.5Zm0-214q-19.74 0-33.24-13.68-13.5-13.67-13.5-33.5 0-19.82 13.68-33.32 13.67-13.5 33.41-13.5 19.73 0 33.82 13.68Q906-500.65 906-480.82q0 19.82-14.26 33.32-14.27 13.5-34 13.5Zm0-213q-19.74 0-33.24-13.68-13.5-13.67-13.5-34 0-20.32 13.68-33.82 13.67-13.5 33.41-13.5 19.73 0 33.82 13.68 14.09 13.67 14.09 34 0 20.32-14.26 33.82-14.27 13.5-34 13.5Zm-163.92 0q-19.82 0-33.32-13.68-13.5-13.67-13.5-34 0-20.32 13.68-33.82 13.67-13.5 33.5-13.5 19.82 0 33.32 13.68 13.5 13.67 13.5 34 0 20.32-13.68 33.82-13.67 13.5-33.5 13.5Z"/></svg>
